style-guide/assets/wds-icons-flag-small.svg

<svg xmlns="http://www.w3.org/2000/svg" xmlns:xlink="http://www.w3.org/1999/xlink" viewBox="0 0 18 18">
  <defs>
    <path id="flag-a" d="M3 11h10.586l-3.293-3.293a.999.999 0 0 1 0-1.414L13.586 3H3v8zm-1 7a1 1 0 0 1-1-1V1a1 1 0 0 1 2 0h13a1.002 1.002 0 0 1 .707 1.707L12.414 7l4.293 4.293A1 1 0 0 1 16 13H3v4a1 1 0 0 1-1 1z"/>
  </defs>
  <use fill-rule="evenodd" xlink:href="#flag-a"/>
</svg>

<svg xmlns="http://www.w3.org/2000/svg" xmlns:xlink="http://www.w3.org/1999/xlink" width="18" height="18" viewBox="0 0 18 18">
  <defs>
    <path id="flag-a" d="M3,11 L13.586,11 L10.293,7.707 C9.902,7.316 9.902,6.684 10.293,6.293 L13.586,3 L3,3 L3,11 Z M2,18 C1.448,18 1,17.553 1,17 L1,1 C1,0.448 1.448,0 2,0 C2.552,0 3,0.448 3,1 L16,1 C16.404,1 16.769,1.244 16.924,1.617 C17.079,1.991 16.993,2.421 16.707,2.707 L12.414,7 L16.707,11.293 C16.993,11.579 17.079,12.009 16.924,12.383 C16.769,12.757 16.404,13 16,13 L3,13 L3,17 C3,17.553 2.552,18 2,18 Z"/>
  </defs>
  <use fill-rule="evenodd" xlink:href="#flag-a"/>
</svg>
